findly-builder/apps/searchassist/src/assets/images/logos/findly-logo.svg

<svg width="141" height="30" viewBox="0 0 141 30" fill="none" xmlns="http://www.w3.org/2000/svg">
<path d="M39.4716 4.5625H41.5C41.4602 2.59659 39.7841 1.20455 37.3068 1.20455C34.8636 1.20455 33.0284 2.57955 33.0341 4.63636C33.0341 6.30682 34.2216 7.26705 36.1364 7.76136L37.4602 8.10227C38.7159 8.42045 39.5455 8.8125 39.5511 9.71591C39.5455 10.7102 38.6023 11.375 37.2273 11.375C35.9091 11.375 34.8864 10.7841 34.8011 9.5625H32.7273C32.8125 11.875 34.5341 13.1761 37.2443 13.1761C40.0341 13.1761 41.6534 11.7841 41.6591 9.73295C41.6534 7.71591 39.9886 6.79545 38.2386 6.38068L37.1477 6.10795C36.1932 5.88068 35.1591 5.47727 35.1705 4.50568C35.1761 3.63068 35.9602 2.98864 37.2784 2.98864C38.5341 2.98864 39.3636 3.57386 39.4716 4.5625ZM47.3111 13.1705C49.3452 13.1705 50.7429 12.1761 51.1065 10.6591L49.1861 10.4432C48.9077 11.1818 48.2259 11.5682 47.3395 11.5682C46.0099 11.5682 45.1293 10.6932 45.1122 9.19886H51.1918V8.56818C51.1918 5.50568 49.3509 4.15909 47.2031 4.15909C44.7031 4.15909 43.0724 5.99432 43.0724 8.6875C43.0724 11.4261 44.6804 13.1705 47.3111 13.1705ZM45.1179 7.8125C45.1804 6.69886 46.0043 5.76136 47.2315 5.76136C48.4134 5.76136 49.2088 6.625 49.2202 7.8125H45.1179ZM55.4432 13.1761C56.8125 13.1761 57.6307 12.5341 58.0057 11.8011H58.0739V13H60.0511V7.15909C60.0511 4.85227 58.1705 4.15909 56.5057 4.15909C54.6705 4.15909 53.2614 4.97727 52.8068 6.56818L54.7273 6.84091C54.9318 6.24432 55.5114 5.73295 56.517 5.73295C57.4716 5.73295 57.9943 6.22159 57.9943 7.07955V7.11364C57.9943 7.70455 57.375 7.73295 55.8352 7.89773C54.142 8.07955 52.5227 8.58523 52.5227 10.5511C52.5227 12.267 53.7784 13.1761 55.4432 13.1761ZM55.9773 11.6648C55.1193 11.6648 54.5057 11.2727 54.5057 10.517C54.5057 9.72727 55.1932 9.39773 56.1136 9.26705C56.6534 9.19318 57.733 9.05682 58 8.84091V9.86932C58 10.8409 57.2159 11.6648 55.9773 11.6648ZM62.1193 13H64.1761V7.86932C64.1761 6.76136 65.0114 5.97727 66.142 5.97727C66.4886 5.97727 66.9205 6.03977 67.0966 6.09659V4.20455C66.9091 4.17045 66.5852 4.14773 66.358 4.14773C65.358 4.14773 64.5227 4.71591 64.2045 5.72727H64.1136V4.27273H62.1193V13ZM71.9105 13.1705C74.1037 13.1705 75.5014 11.8693 75.6491 10.017H73.6832C73.5071 10.9545 72.831 11.4943 71.9276 11.4943C70.6435 11.4943 69.8139 10.4205 69.8139 8.63636C69.8139 6.875 70.6605 5.81818 71.9276 5.81818C72.9162 5.81818 73.5241 6.45455 73.6832 7.29545H75.6491C75.5071 5.40341 74.0298 4.15909 71.8991 4.15909C69.3423 4.15909 67.7287 6.00568 67.7287 8.67045C67.7287 11.3125 69.3026 13.1705 71.9105 13.1705ZM79.3949 7.88636C79.3949 6.625 80.179 5.89773 81.2812 5.89773C82.3608 5.89773 82.9972 6.58523 82.9972 7.76136V13H85.054V7.44318C85.054 5.33523 83.8608 4.15909 82.0483 4.15909C80.7074 4.15909 79.8551 4.76705 79.4517 5.75568H79.3494V1.36364H77.3381V13H79.3949V7.88636ZM88.7358 13L89.696 10.1307H94.071L95.0369 13H97.2869L93.1847 1.36364H90.5824L86.4858 13H88.7358ZM90.2642 8.4375L91.8381 3.75H91.929L93.5028 8.4375H90.2642ZM105.486 6.57955C105.202 5.10227 104.02 4.15909 101.974 4.15909C99.8722 4.15909 98.4403 5.19318 98.446 6.80682C98.4403 8.07955 99.2244 8.92045 100.901 9.26705L102.389 9.57955C103.19 9.75568 103.565 10.0795 103.565 10.5739C103.565 11.1705 102.918 11.6193 101.94 11.6193C100.997 11.6193 100.384 11.2102 100.207 10.4261L98.2017 10.6193C98.4574 12.2216 99.804 13.1705 101.946 13.1705C104.128 13.1705 105.668 12.0398 105.673 10.3864C105.668 9.14205 104.866 8.38068 103.219 8.02273L101.73 7.70455C100.844 7.50568 100.491 7.19886 100.497 6.69318C100.491 6.10227 101.145 5.69318 102.003 5.69318C102.952 5.69318 103.452 6.21023 103.611 6.78409L105.486 6.57955ZM114.267 6.57955C113.983 5.10227 112.801 4.15909 110.756 4.15909C108.653 4.15909 107.222 5.19318 107.227 6.80682C107.222 8.07955 108.006 8.92045 109.682 9.26705L111.17 9.57955C111.972 9.75568 112.347 10.0795 112.347 10.5739C112.347 11.1705 111.699 11.6193 110.722 11.6193C109.778 11.6193 109.165 11.2102 108.989 10.4261L106.983 10.6193C107.239 12.2216 108.585 13.1705 110.727 13.1705C112.909 13.1705 114.449 12.0398 114.455 10.3864C114.449 9.14205 113.648 8.38068 112 8.02273L110.511 7.70455C109.625 7.50568 109.273 7.19886 109.278 6.69318C109.273 6.10227 109.926 5.69318 110.784 5.69318C111.733 5.69318 112.233 6.21023 112.392 6.78409L114.267 6.57955ZM116.151 13H118.207V4.27273H116.151V13ZM117.185 3.03409C117.838 3.03409 118.372 2.53409 118.372 1.92045C118.372 1.30114 117.838 0.801136 117.185 0.801136C116.526 0.801136 115.991 1.30114 115.991 1.92045C115.991 2.53409 116.526 3.03409 117.185 3.03409ZM127.22 6.57955C126.936 5.10227 125.754 4.15909 123.709 4.15909C121.607 4.15909 120.175 5.19318 120.18 6.80682C120.175 8.07955 120.959 8.92045 122.635 9.26705L124.124 9.57955C124.925 9.75568 125.3 10.0795 125.3 10.5739C125.3 11.1705 124.652 11.6193 123.675 11.6193C122.732 11.6193 122.118 11.2102 121.942 10.4261L119.936 10.6193C120.192 12.2216 121.538 13.1705 123.68 13.1705C125.862 13.1705 127.402 12.0398 127.408 10.3864C127.402 9.14205 126.601 8.38068 124.953 8.02273L123.464 7.70455C122.578 7.50568 122.226 7.19886 122.232 6.69318C122.226 6.10227 122.879 5.69318 123.737 5.69318C124.686 5.69318 125.186 6.21023 125.345 6.78409L127.22 6.57955ZM133.462 4.27273H131.74V2.18182H129.683V4.27273H128.445V5.86364H129.683V10.7159C129.672 12.358 130.865 13.1648 132.411 13.1193C132.996 13.1023 133.399 12.9886 133.621 12.9148L133.274 11.3068C133.161 11.3352 132.928 11.3864 132.672 11.3864C132.155 11.3864 131.74 11.2045 131.74 10.375V5.86364H133.462V4.27273Z" fill="#202124"/>
<path d="M32.8631 27H33.6728V26.1619H33.7722C33.9569 26.4602 34.312 27.1136 35.3631 27.1136C36.7267 27.1136 37.6784 26.0199 37.6784 24.2869C37.6784 22.5682 36.7267 21.4744 35.3489 21.4744C34.2836 21.4744 33.9569 22.1278 33.7722 22.4119H33.7012V19.7273H32.8631V27ZM33.687 24.2727C33.687 23.0511 34.2267 22.2273 35.2495 22.2273C36.3148 22.2273 36.8404 23.1222 36.8404 24.2727C36.8404 25.4375 36.3006 26.3608 35.2495 26.3608C34.2409 26.3608 33.687 25.5085 33.687 24.2727ZM39.3049 29.0455C40.0613 29.0455 40.5939 28.6442 40.91 27.7955L43.2324 21.5597L42.3162 21.5455L40.8105 25.892H40.7537L39.248 21.5455H38.339L40.356 27.0284L40.1998 27.4545C39.8944 28.2855 39.5179 28.3636 38.9071 28.2074L38.6941 28.946C38.7793 28.9886 39.0208 29.0455 39.3049 29.0455ZM47.0188 27H48.5565V24.9332L49.3129 24.0099L51.305 27H53.1445L50.4137 22.9837L53.1126 19.7273H51.2695L48.6523 22.9339H48.5565V19.7273H47.0188V27ZM55.949 27.1065C57.6039 27.1065 58.6337 25.9737 58.6337 24.294C58.6337 22.6037 57.6039 21.4744 55.949 21.4744C54.2942 21.4744 53.2644 22.6037 53.2644 24.294C53.2644 25.9737 54.2942 27.1065 55.949 27.1065ZM55.9561 25.9347C55.1926 25.9347 54.802 25.2351 54.802 24.2834C54.802 23.3317 55.1926 22.6286 55.9561 22.6286C56.7054 22.6286 57.0961 23.3317 57.0961 24.2834C57.0961 25.2351 56.7054 25.9347 55.9561 25.9347ZM59.6174 27H61.1301V23.9141C61.1301 23.2429 61.6202 22.7812 62.2878 22.7812C62.4973 22.7812 62.785 22.8168 62.927 22.8629V21.5206C62.7921 21.4886 62.6039 21.4673 62.4512 21.4673C61.8404 21.4673 61.3397 21.8224 61.1408 22.4972H61.084V21.5455H59.6174V27ZM65.9411 27.1065C67.2905 27.1065 68.1996 26.4496 68.4126 25.4375L67.0135 25.3452C66.8608 25.7607 66.4702 25.9773 65.9659 25.9773C65.2095 25.9773 64.7301 25.4766 64.7301 24.6634V24.6598H68.4446V24.2443C68.4446 22.3906 67.3224 21.4744 65.8807 21.4744C64.2756 21.4744 63.2351 22.6143 63.2351 24.2976C63.2351 26.027 64.2614 27.1065 65.9411 27.1065ZM64.7301 23.7223C64.7621 23.1009 65.2344 22.6037 65.9055 22.6037C66.5625 22.6037 67.017 23.0724 67.0206 23.7223H64.7301ZM70.3161 27.0923C70.7706 27.0923 71.1648 26.7124 71.1683 26.2401C71.1648 25.7749 70.7706 25.3949 70.3161 25.3949C69.8473 25.3949 69.4602 25.7749 69.4638 26.2401C69.4602 26.7124 69.8473 27.0923 70.3161 27.0923ZM73.9657 27.103C74.7718 27.103 75.2939 26.7514 75.5602 26.2436H75.6028V27H77.0375V23.321C77.0375 22.0213 75.9366 21.4744 74.7221 21.4744C73.4153 21.4744 72.5559 22.0994 72.3464 23.0938L73.7456 23.2074C73.8485 22.8452 74.1717 22.5788 74.715 22.5788C75.2299 22.5788 75.5247 22.8381 75.5247 23.2855V23.3068C75.5247 23.6584 75.1518 23.7045 74.2037 23.7969C73.1241 23.8963 72.1547 24.2585 72.1547 25.4766C72.1547 26.5561 72.9252 27.103 73.9657 27.103ZM74.399 26.0589C73.9338 26.0589 73.6 25.8423 73.6 25.4268C73.6 25.0007 73.9515 24.7912 74.4842 24.7166C74.8145 24.6705 75.3542 24.5923 75.5353 24.4716V25.0504C75.5353 25.6222 75.063 26.0589 74.399 26.0589ZM78.2111 27H79.7239V21.5455H78.2111V27ZM78.9711 20.8423C79.4221 20.8423 79.7914 20.4979 79.7914 20.0753C79.7914 19.6562 79.4221 19.3118 78.9711 19.3118C78.5236 19.3118 78.1543 19.6562 78.1543 20.0753C78.1543 20.4979 78.5236 20.8423 78.9711 20.8423Z" fill="#9AA0A6"/>
<path d="M4.40536 18.6343L6.34863 20.5776L2.02353 24.9027C1.91636 25.0098 1.74215 25.0098 1.63498 24.9027L0.0807986 23.3485C-0.0263672 23.2413 -0.0263672 23.0671 0.0807986 22.9599L4.40536 18.6343Z" fill="#009DAB"/>
<circle r="8.7931" transform="matrix(-1 0 0 1 13.1893 11.7931)" fill="#FFDC5C"/>
</svg>

<svg width="141" height="30" fill="none" xmlns="http://www.w3.org/2000/svg"><path d="M39.472 4.563H41.5c-.04-1.966-1.716-3.358-4.193-3.358-2.443 0-4.279 1.375-4.273 3.431 0 1.67 1.188 2.631 3.102 3.125l1.324.341c1.256.318 2.085.71 2.091 1.614-.006.994-.949 1.659-2.324 1.659-1.318 0-2.34-.59-2.426-1.813h-2.074c.086 2.313 1.807 3.614 4.517 3.614 2.79 0 4.41-1.392 4.415-3.443-.006-2.017-1.67-2.938-3.42-3.352l-1.091-.273c-.955-.227-1.989-.63-1.978-1.602.006-.875.79-1.517 2.108-1.517 1.256 0 2.086.585 2.194 1.574Zm7.84 8.608c2.033 0 3.43-.995 3.794-2.512l-1.92-.216c-.278.739-.96 1.125-1.846 1.125-1.33 0-2.21-.875-2.228-2.37h6.08v-.63c0-3.062-1.841-4.409-3.989-4.409-2.5 0-4.13 1.835-4.13 4.529 0 2.738 1.607 4.482 4.238 4.482Zm-2.194-5.358c.062-1.114.886-2.052 2.113-2.052 1.182 0 1.978.864 1.99 2.051h-4.103Zm10.325 5.363c1.37 0 2.188-.642 2.563-1.375h.068V13h1.977V7.16c0-2.308-1.88-3-3.545-3-1.836 0-3.245.817-3.7 2.408l1.921.273c.205-.597.784-1.108 1.79-1.108.955 0 1.477.489 1.477 1.347v.034c0 .59-.619.619-2.159.784-1.693.182-3.312.687-3.312 2.653 0 1.716 1.255 2.625 2.92 2.625Zm.534-1.511c-.858 0-1.471-.392-1.471-1.148 0-.79.687-1.12 1.608-1.25.54-.074 1.619-.21 1.886-.426v1.028c0 .972-.784 1.796-2.023 1.796ZM62.12 13h2.057V7.87c0-1.109.835-1.893 1.966-1.893.347 0 .779.063.955.12V4.205a4.938 4.938 0 0 0-.739-.057c-1 0-1.835.568-2.154 1.58h-.09V4.272H62.12V13Zm9.791.17c2.194 0 3.591-1.3 3.74-3.153h-1.967c-.176.938-.852 1.477-1.755 1.477-1.284 0-2.114-1.073-2.114-2.858 0-1.761.847-2.818 2.114-2.818.988 0 1.596.637 1.755 1.477h1.966c-.142-1.892-1.62-3.136-3.75-3.136-2.557 0-4.17 1.847-4.17 4.511 0 2.643 1.574 4.5 4.181 4.5Zm7.485-5.284c0-1.261.784-1.988 1.886-1.988 1.08 0 1.716.687 1.716 1.863V13h2.057V7.443c0-2.108-1.193-3.284-3.006-3.284-1.34 0-2.193.608-2.596 1.597h-.103V1.364h-2.01V13h2.056V7.886ZM88.735 13l.961-2.87h4.375l.966 2.87h2.25L93.185 1.364h-2.603L86.486 13h2.25Zm1.53-4.563 1.573-4.687h.091l1.574 4.688h-3.239Zm15.221-1.857c-.284-1.478-1.466-2.42-3.512-2.42-2.102 0-3.534 1.033-3.528 2.647-.006 1.273.778 2.113 2.455 2.46l1.488.313c.801.176 1.176.5 1.176.994 0 .597-.647 1.045-1.625 1.045-.943 0-1.556-.409-1.733-1.193l-2.005.193c.255 1.603 1.602 2.552 3.744 2.552 2.182 0 3.722-1.131 3.727-2.785-.005-1.244-.807-2.005-2.454-2.363l-1.489-.318c-.886-.2-1.239-.506-1.233-1.012-.006-.59.648-1 1.506-1 .949 0 1.449.517 1.608 1.091l1.875-.204Zm8.781 0c-.284-1.478-1.466-2.42-3.511-2.42-2.103 0-3.534 1.033-3.529 2.647-.005 1.273.779 2.113 2.455 2.46l1.488.313c.802.176 1.177.5 1.177.994 0 .597-.648 1.045-1.625 1.045-.944 0-1.557-.409-1.733-1.193l-2.006.193c.256 1.603 1.602 2.552 3.744 2.552 2.182 0 3.722-1.131 3.728-2.785-.006-1.244-.807-2.005-2.455-2.363l-1.489-.318c-.886-.2-1.238-.506-1.233-1.012-.005-.59.648-1 1.506-1 .949 0 1.449.517 1.608 1.091l1.875-.204Zm1.884 6.42h2.056V4.273h-2.056V13Zm1.034-9.966c.653 0 1.187-.5 1.187-1.114 0-.619-.534-1.119-1.187-1.119-.659 0-1.194.5-1.194 1.12 0 .613.535 1.113 1.194 1.113ZM127.22 6.58c-.284-1.478-1.466-2.42-3.511-2.42-2.102 0-3.534 1.033-3.529 2.647-.005 1.273.779 2.113 2.455 2.46l1.489.313c.801.176 1.176.5 1.176.994 0 .597-.648 1.045-1.625 1.045-.943 0-1.557-.409-1.733-1.193l-2.006.193c.256 1.603 1.602 2.552 3.744 2.552 2.182 0 3.722-1.131 3.728-2.785-.006-1.244-.807-2.005-2.455-2.363l-1.489-.318c-.886-.2-1.238-.506-1.232-1.012-.006-.59.647-1 1.505-1 .949 0 1.449.517 1.608 1.091l1.875-.204Zm6.242-2.307h-1.722V2.182h-2.057v2.09h-1.238v1.592h1.238v4.852c-.011 1.642 1.182 2.449 2.728 2.403.585-.017.988-.13 1.21-.204l-.347-1.608c-.113.028-.346.08-.602.08-.517 0-.932-.183-.932-1.012V5.864h1.722V4.273Z" fill="#202124"/><path d="M32.863 27h.81v-.838h.1c.184.298.539.952 1.59.952 1.364 0 2.315-1.094 2.315-2.827 0-1.719-.951-2.813-2.33-2.813-1.064 0-1.391.654-1.576.938h-.07v-2.685h-.839V27Zm.824-2.727c0-1.222.54-2.046 1.563-2.046 1.065 0 1.59.895 1.59 2.046 0 1.165-.54 2.088-1.59 2.088-1.01 0-1.563-.852-1.563-2.088Zm5.618 4.773c.756 0 1.289-.402 1.605-1.25l2.322-6.236-.916-.014-1.506 4.346h-.056l-1.506-4.346h-.909l2.017 5.482-.156.427c-.306.83-.682.909-1.293.752l-.213.739c.085.043.327.1.61.1ZM47.019 27h1.538v-2.067l.756-.923L51.305 27h1.84l-2.731-4.016 2.699-3.257H51.27l-2.618 3.207h-.096v-3.207H47.02V27Zm8.93.107c1.655 0 2.685-1.133 2.685-2.813 0-1.69-1.03-2.82-2.685-2.82s-2.685 1.13-2.685 2.82c0 1.68 1.03 2.813 2.685 2.813Zm.007-1.172c-.763 0-1.154-.7-1.154-1.652 0-.951.39-1.654 1.154-1.654.75 0 1.14.703 1.14 1.654 0 .952-.39 1.652-1.14 1.652ZM59.617 27h1.513v-3.086c0-.671.49-1.133 1.158-1.133.21 0 .497.036.639.082V21.52a2.267 2.267 0 0 0-.476-.054c-.61 0-1.111.355-1.31 1.03h-.057v-.951h-1.467V27Zm6.324.107c1.35 0 2.259-.657 2.472-1.67l-1.4-.092c-.152.416-.543.632-1.047.632-.756 0-1.236-.5-1.236-1.314v-.003h3.715v-.416c0-1.853-1.123-2.77-2.564-2.77-1.605 0-2.646 1.14-2.646 2.824 0 1.729 1.026 2.809 2.706 2.809Zm-1.21-3.385c.031-.621.503-1.118 1.175-1.118.656 0 1.111.468 1.115 1.118h-2.29Zm5.585 3.37c.455 0 .849-.38.852-.852a.863.863 0 0 0-.852-.845.849.849 0 1 0 0 1.697Zm3.65.011c.806 0 1.328-.352 1.594-.86h.043V27h1.434v-3.679c0-1.3-1.1-1.847-2.315-1.847-1.307 0-2.166.625-2.376 1.62l1.4.113c.103-.362.426-.628.969-.628.515 0 .81.26.81.706v.022c0 .351-.373.398-1.321.49-1.08.1-2.05.462-2.05 1.68 0 1.08.771 1.626 1.812 1.626Zm.433-1.044c-.465 0-.799-.217-.799-.632 0-.426.352-.636.884-.71.33-.046.87-.125 1.051-.245v.578c0 .572-.472 1.009-1.136 1.009Zm3.812.941h1.513v-5.454H78.21V27Zm.76-6.158c.451 0 .82-.344.82-.767 0-.419-.369-.763-.82-.763-.447 0-.817.344-.817.763 0 .423.37.767.817.767Z" fill="#9AA0A6"/><path d="m4.405 18.634 1.944 1.944-4.325 4.325a.275.275 0 0 1-.389 0L.081 23.349a.275.275 0 0 1 0-.39l4.324-4.325Z" fill="#009DAB"/><circle r="8.793" transform="matrix(-1 0 0 1 13.19 11.793)" fill="#FFDC5C"/></svg>
